X:1
T:Bound for Greenland
M:4/4
L:1/4
K:F
 D| F G AG/2-F/2| G A c G| A dc/2-d/2 e| d3| d/2c/2| cd/2-c/2 A F/2F/2|\
 G A C D| FG/2-F/2 D D| D3||
